X:1
T:Title
%%score { 1 | 2 }
L:1/8
Q:1/4=120
M:3/4
K:F
V:1 treble nm="Piano"
V:2 bass 
V:1
|: c2 d/e/f e2 | (3fed d c3 | (3d_ed (3(cdc) (3(BcB) | B A3 G2 | AcFcGc | AcBcGc | AcFcGc | %7
 AcBcGc | Acdefd | c=BAG (c/d/c/B/) | cf e2 d/c/d | c6 :: g2 fefd | eg b2 z2 | a2 gf ed | d^c c4 | %16
 ^cdecde | A2 A2 A2 | ^cdecde | G2 G2 G2 | ^cdecde | Ad=cBAG | F2 G2 E2 | D6 | cfef_ef | afdfcf | %26
 dg^fg=fg | bgegcB | Afgagf | Bgabag | cc' ba ga | g(f f4) :| %32
V:2
|: F,2 A,2 G,2 | A,2 F,G,A,F, | B,2 C2 C,2 | F,2 C,D,E,C, | F,2 A,,2 G,,2 | F,,2 G,,2 E,,2 | %6
 F,,2 A,,2 G,,2 | F,,2 G,,2 E,,2 | F,,2 F,2 D,2 | G,2 E,2 A,2 | F,2 G,2 G,,2 | C,6 :: %12
 C,2 G,2 G,,2 | C,2 E,D,E,C, | F,2 B,2 G,2 | A,2 E,2 ^C,2 | A,,2 A,2 E,2 | ^C,D,E,C,D,E, | %18
 A,,2 A,,2 A,,2 | ^C,D,E,C,D,E, | G,,2 G,,2 G,,2 | F,,2 F,2 G,2 | A,4 A,,2 | D,DCB,A,G, | A,4 G,2 | %25
 F,2 B,2 A,2 | B,4 A,2 | G,2 C2 E,2 | F, z z2 z2 | G,2 z2 z2 | A,2 B,2 C2 | F,6 :| %32

